X:11109
T:Monferrina
C:Tre Martelli: Omi e Paiz 7c
M:6/8
L:1/8
K:G
DEF|GFG BGB|d3 e2d|cBA ABc|B3 GBd|\
gfg B2B|d3 e2d|fed cBA|G3:|
|:g2g|fed def|e2d def|edc cBA|B3 G2g|\
fed def|e2d def|edc cBA|G3:|
